X:1
T:Rejoice in the Lord - Steffani
T:#
%%score [ 1 2 3 ] { ( 4 5 ) | 6 }
L:1/8
Q:1/4=108
M:3/4
K:C
V:1 treble nm="Soprano I" snm="S1"
V:2 treble nm="Soprano II" snm="S2"
V:3 treble nm="Bass" snm="B"
V:4 treble nm="Keyboard"
V:5 treble 
V:6 bass 
V:1
 z2 | z6 | z6 | z6 | z6 | z6 | z6 | z6 | z6 ||[M:3/4] z4 |: z2 | z6 | z6 | z6 | z6 | z6 | %16
w: ||||||||||||||||
[M:3/4] z6 | z6 | z6 | z6 | z6 ||[K:G][M:3/4][K:treble]"^1st Soprano" z2 z2!f! G2 | d2 d2 d2 | %23
w: |||||Re-|joice in the|
 B2 G2 d2 | (^cB) (cA) (Bc) | (d^c) (de) (fd) | (ed) (e^c) (de) | f2 (gf) (ed) | d4 ^c2 | %29
w: Lord, O ye|right\- * eous, * ye *|right\- * eous, * re\- *|joice * in * the *|Lord, O * ye *|right- *|
 d4!p! G2 | (FE) (FD) (EF) | G4 G2 | d2 d2 d2 | B2 B2 e2 | (dc) (dB) (cd) | e4!f! G2 | c2 c2 B2 | %37
w: eous; re-|joice * in * the *|Lord, re-|joice in the|Lord, O ye|right\- * eous, * re\- *|joice, re-|joice in the|
 A6 | z2 z2 d2 | g2 (gf) (ed) | (cB) B2 A2 | G4 z2 | z6 | z2 z2!p! d2 | g2 (gf) (ed) | %45
w: Lord,|re-|joice, O * re\- *|joice * in the|Lord,||re-|joice, O * re\- *|
 (cB) (B2 !fermata!TAA) | G4 z2 | z6 | z6 | z6 | z6 | z6 | z6 | z6 | z6 | !fermata!z4!fine! || %56
w: joice * in * the|Lord;||||||||||
[M:3/4] z2 | z6 | z6 | z6 | z6 | z6 | z6 |[M:3/4] z6 | z6 | z2 z2!p! A2 | FE (FG) (FE) | D4 A2 | %68
w: |||||||||For|it be- com\- * eth *|well the|
 (FE) (FG) (FE) | D2 D2 A2 | (F2 G2) A2 | B4 A2 | A2 G2 (FE) | (F2 TE4) | D4!f! d2 | d6- | d4 d2 | %77
w: just * to * be *|thank- ful, be-|com\- * eth|well the|just to be *|thank\- *|ful. Re-|joice,|* re-|
 d6- | d4 d2 | d6- | d2 d2 d2 | B2 c2 d2 | E2 F2 G2 | (G4 F2) | G2!p! G2 A2 | B2 B2 F2 | %86
w: joice,|* re-|joice,|* it be-|com- eth the|just to be|thank\- *|ful, it be-|com- eth the|
[Q:1/4=72] !fermata!G4 G2 | G2 (G2[Q:1/4=54] !fermata!TF2) |[Q:1/4=108] G4 z2 | z6 | z6 | z6 | %92
w: just to|be thank\- *|ful.||||
 z4 :| %93
w: |
V:2
 z2 | z6 | z6 | z6 | z6 | z6 | z6 | z6 | z6 ||[K:G][M:3/4][K:treble] z2 z2 |: z2 | z6 | %12
w: ||||||||||||
 z2 z2"^2nd Soprano"!f! G2 | d2 d2 d2 | B2 G2 G2 | (FE) (FD) (EF) | (GF) (GA) (Bc) | d2 B2 d2 | %18
w: Re-|joice in the|Lord, O ye|right\- * eous, * re\- *|joice, * O * ye *|right- eous, re-|
 (ed) (cB) (AG) | d2 (GF) (GA) | (B2 TA4) || G4 G2 | (FE) (FD) (EF) | (GF) (GA) (FG) | %24
w: joice * in * the *|Lord, O * ye *|right\- *|eous; re-|joice * in * the *|Lord, * O * ye *|
 (ED) (E^C) (DE) | F2 F2 D2 | A6- | A2 (BA) (GF) | (F2 E4) | D4!p! B2 | (AG) (AF) (GA) | B4 G2 | %32
w: right\- * eous, * ye *|right- eous, re-|joice|* O * ye *|right- *|eous; re-|joice * in * the *|Lord, re-|
 (FE) (FD) (EF) | (GA) (GF) (Ec) | (BA) (BG) (AB) | c4 z2 | z2 z2!f! G2 | d2 d2 c2 | B2 B2 A2 | %39
w: joice * in * the *|Lord, * O * ye *|right\- * teous, * re\- *|joice,|re-|joice in the|Lord, O ye|
 B2 (AB) (cB) | (AG) G2 F2 | G4!p! G2 | d2 d3 c | B2 B2 A2 | B2 (AB) (cB) | %45
w: right- eous, * re\- *|joice * in the|Lord, re-|joice in the|Lord! O ye|righ- teous, * re\- *|
 (AG) (G2 !fermata!TF)F | G4 z2 | z6 | z6 | z6 | z6 | z6 | z6 | z6 | z6 | !fermata!z4 ||!f! B2 | %57
w: joice * in * the|Lord;||||||||||For|
 GF (GA) (GF) | E4 A2 | (FE) (FG) (FE) | D2 D2 d2 | (B2 ^c2) d2 | (^c2 d2) e2 | A6- | A2 G2 (FE) | %65
w: it be- com\- * eth *|well the|just * to * be *|thank- ful, be-|com\- * eth|well * the|just|* to be *|
 (F2 TE4) | D2!p! A4 | A6- | A4 A2 | A2 A2 A2 | A4 A2 | (A2 G2) F2 | B3 ^c d2- | d2 (d2 ^c2) | d6 | %75
w: thank\- *|ful, re-|joice,|* re-|joice, it be-|com- eth|well * the|just to be|* thank\- *|ful,|
 z2 z2!f! d2 | BA (Bc) (BA) | G4 d2 | (BA) (Bc) (BA) | G2 G2 d2 | (B2 c2) d2 | G2 A2 B2 | %82
w: for|it be- com\- * eth *|well the|just * to * be *|thank- ful, for|it * be-|com- eth the|
 c2 A2 d2 | (cB TA4) | G2!p! G2 F2 | G2 G2 B2 | !fermata!A4 A2 | (Bc) (!fermata!B2 !fermata!TA2) | %88
w: just to be|thank\- * *|ful, it be-|com- eth the|just to|be * thank\- *|
 G4 z2 | z6 | z6 | z6 | z4 :| %93
w: ful.|||||
V:3
 z2 | z6 | z6 | z6 | z6 | z6 | z6 | z6 | z6 ||[K:G][M:3/4][K:bass] z2 z2 |:!f! G,2 | D2 D2 D2 | %12
w: ||||||||||Re-|joice in the|
 B,2 G,2 G,2 | (F,E,) (F,D,) (E,F,) | (G,F,) (G,A,) (B,C) | D2 (D,B,,) (C,D,) | %16
w: Lord, O ye|right\- * eous, * ye *|right\- * eous, * re\- *|joice in * the *|
 (E,D,) (E,F,) (G,A,) | B,2 G,2 B,2 | (CB,) (A,G,) (F,E,) | D,2 E,2 C,2 | D,6 || G,,4 z2 | z6 | %23
w: Lord, * O * ye *|right- eous, re-|joice * in * the *|Lord, O ye|right-|eous;||
 z2 z2 D,2 | A,2 A,2 A,2 | F,2 D,2 D,2 | (^C,B,,) (C,A,,) (B,,C,) | D,2 G,2 B,2 | A,6 | %29
w: re-|joice in the|Lord, O ye|right\- * eous, * re\- *|joice, O ye|right-|
 D,4!p! G,,2 | D,2 D,2 D,2 | B,,2 G,,2 E,2 | (D,C,) (D,B,,) (C,D,) | E,4 C,2 | G,2 G,2!f! G,2 | %35
w: eous; re-|joice in the|Lord, O ye|right\- * eous, * re\- *|joice, ye|right- eous, re-|
 C2 C2 B,2 | A,2 A,2 G,2 | F,2 D,2 D,2 | G,2 G,2 F,2 | (E,3 D,) C,2 | C,2 D,2 D,2 | G,,4 z2 | %42
w: joice in the|Lord, O ye|right- eous, re-|joice in the|Lord, * re-|joice in the|Lord,|
 z2 z2!p! D,2 | G,2 G,2 F,2 | (E,3 D,) C,2 | C,2 !fermata!D,3 D, | G,,4 z2 | z6 | z6 | z6 | z6 | %51
w: re-|joice in the|Lord, * re-|joice in the|Lord;|||||
 z6 | z6 | z6 | z6 | !fermata!z4 || z2 | z2 z2!f! E,2 | ^C,B,, (C,D,) (C,B,,) | A,,4 D,2 | %60
w: ||||||For|it be- com\- * eth *|well the|
 (B,,A,,) (B,,C,) (B,,A,,) | G,,2 G,,2 G,2 | (E,2 F,2) G,2 | (F,2 G,2) A,2 | B,2 ^C2 (DG,) | A,6 | %66
w: just * to * be *|thank- ful, be-|com\- * eth|well * the|just to be *|thank-|
 D,2 z2!p! A,2 | F,E, (F,G,) (F,E,) | D,4 A,2 | (F,E,) (F,G,) (F,E,) | D,2 D,2 D,2 | %71
w: ful, for|it be- com\- * eth *|well the|just * to * be *|thank- ful, be-|
 B,,2 ^C,2 D,2 | G,,2 A,,2 B,,2 | A,,6 | D,4!f! D2 | B,A, (B,C) (B,A,) | G,4 D2 | %77
w: com- eth the|just to be|thank-|ful, for|it be- com\- * eth *|well the|
 (B,A,) (B,C) (B,A,) | G,2 G,2 D2 | (B,2 C2) D2 | (G,2 A,2) B,2 | E,4 D,2 | C,2 C,2 (B,,2- | %83
w: just * to * be *|thank- ful, for|it * be-|com\- * eth|well the|just to be|
 B,,C, D,4) | G,2!p! G,2 D,2 | G,2 G,2 D,2 | !fermata!E,4 C,2 | C,2 D,4 | G,,4 z2 | z6 | z6 | z6 | %92
w: * * thank-|ful, it be-|com- eth the|just to|be thank-|ful.||||
 z4 :| %93
w: |
V:4
[K:G]"^Rejoice in the Lord""^Agostino Steffani\n(1654-1728)""^Psalm 33:1" G2 | d2 d2 d2 | %2
 B2 G2 G2 | (FEFD) (EF) | GF GA Bc | [Bd]2 [GB]2 [Bd]2 | ([ce][Bd][Ac][GB] [FA][EG]) | d2 GFGA | %8
 B2 A4 || G2 G,2 |: z2 | z6 | z2 z2 G2 | [Ad]4 [Ad]2 | [GB]2 [EG]2 [EG]2 | F2 F2 EF | GFGA Bc | %17
 d2 B2 d2 | [Ge]2 [Ac]2 AG | d2 G2 GA | B2 A4 || [B,DG]4 G2 | d4 d2 | B2 G2 d2 | ^c4 Bc | d4 f2 | %26
 e2 ^c2 de | [df]2 x4 | d4 ^c2 | d4!p! [GB]2 | [FA][EG][FA][DF] [EG][FA] | B4 G2 | d2 d2 d2 | %33
 B2 B2 e2 | dcdB!f! cd | e4 G2 | c4 [GB]2 | [Bd]4 [Ac]2 | B4 d2 | [GBg]4 [ce][Bd] | %40
 [Ac][GB] [GB]2 [FA]2 | [B,DG]4!p! G2 | d2 d3 c | B2 B2 d2 | g2 gf ed | cB B2 !fermata!A2 | %46
 [B,G]4!f! G2 | d2 d2 d2 | B2 G2 G2 | FEFD EF | GFGA Bc | [Bd]2 [GB]2 [Bd]2 | %52
 ([ce][Bd][Ac][GB] [FA][EG]) | d2 GF GA | B2 A4 | !fermata![B,G]4 || [B,B]2 | G4!f! GF | %58
 [A,E]4 [A,A]2 | [A,^CF]4 FE | D4 [Gd]2 | [GB]2 [A^c]2 [Bd]2 | [A^c]2 d2 e2 | A6 | %64
 [B,DA]2 [CG]2 [DF]2 | F2 E2!p! A2 | FE A4 | [DA]4 A2 | A4 A2 | [DA]4 A2 | A4 A2 | B4 A2 | %72
 B3 ^c d2 | d4 ^c2 |!f! d4 d2 | d6- | d6 | d6- | d6 | d4"^I" d2 | d4 d2 | B2 c2 d2 | c2 A2 d2 | %83
 cB A4 | G2!p! G2 A2 | B4 A2 | [CGA]4"^adagio" A2 | Bc [GB]2 !fermata![FA]2 | %88
"^a tempo" [DG]2 [bd']2!f! [gb]2 | [ega]2 [ega]2 [dfa]2 | [cga]4 [ga]2 | bc' [gb]2 [fa]2 | %92
"^al fine" [Bdg]4 :| %93
V:5
[K:G] x2 | x4 x2 | x4 x2 | x4 x2 | x2 GF GA | x4 x2 | x4 x2 | [DF]2 B,2 E2 | G4 F2 || x4 |: x2 | %11
 x4 x2 | x4 x2 | D4 F2 | E2 B,2 B,C | D2 D4 | B,2 E2 G2 | [DG]4 G2 | E4 E2 | F2 B,2 E2 | %20
 [DG]4- [DF]2 || x4 E2 | [DFA]6 | [DG]4 F2 | E6 | [FA]4 A2 | A4 B^c | A2 [Bg][Af][Ge][Fd] | F2 E4 | %29
 F4 x2 | x4 x2 | G4 G2 | F2 F2 EF | G4 c2 | BABG AB | c4 D2 | E2 F2 x2 | D2 F4 | [DG]4 A2 | x4 x2 | %40
 x2 D4 | x4 x2 | x4 x2 | x4 A2 | [GB]2 B2 cB | AG G2 F2 | x4 x2 | x4 x2 | x4 B,2 | A,4 A,2 | %50
 D2 GF GA | x4 x2 | x4 x2 | F2 B,2 E2 | G4 F2 | x4 || x2 | B,6 | x4 x2 | x4 A,2 | %60
[I:staff +1] F,4[I:staff -1] D2 | D2 E4 | E2 F2 G2 | F2 [EG]2 [DF]2 | x4 x2 | D4 C2 | D2 FGFE | %67
[I:staff +1] F,E, F,G, F,E, |[I:staff -1] FEFG FE |[I:staff +1] F,E, F,G, F,E, | %70
[I:staff -1] F2 G2 F2 | [DA]2 [EG]2 F2 | A2 G2 FE | F2 E4 | [DF]4 D2 | [DGB]6- | [DGB]6 | [DGB]6- | %78
 [DGB]6 | [DGB]4 D2 | B2 c2 d2 | G2 A2 B2 | E2 F2 G2 | G2- G2 F2 | G2 x2 F2 | G4 F2 | x4 [EG]2- | %87
 [EG]2 D4 | B,2 x2 x2 | x4 x2 | x4 e2- | [eg]2 d4 | x4 :| %93
V:6
[K:G] z2 | z6 | z2 z2 G,,2 | D,2 D,2 D,2 | B,,2 B,2 A,2 | G,4 G,,2 | C,6 | D,2 E,2 C,2 | %8
 D,4 D,,2 || [G,,,G,,]4 |: G,2 | D2 D2 D2 | B,2 G,2 G,,2 | F,2 D,4 | E,2 E,2 E,2 | D,2 B,,4 | E,6 | %17
 B,2 G,4 | C,6 | D,2 E,2 C,2 | D,6 || G,2 G,,2 E,2 | [D,,D,]6 | [G,,G,]4 D,2 | [A,,A,]6 | %25
 [F,,F,]2 [D,,D,]4 | [^C,,^C,]2 [A,,,A,,]4 | [D,,D,]2 G,,2 B,,2 | A,,4 A,2 | [D,,D,]4!p! G,,2 | %30
 D,6 | B,,2 G,,2 E,2 | D,2 B,,4 | E,4 C,2 | G,4!f! [G,,G,]2 | [C,C]2 [C,C]2 [B,,B,]2 | %36
 [A,,A,]4 [G,,G,]2 | [F,,F,]2 [D,,D,]4 | [G,,G,]2 [G,,G,]2 [F,,F,]2 | [E,,E,]4 [C,,C,]2 | %40
 [C,,C,]2 [D,,D,]4 | [G,,,G,,]4 z2 | z2 z2!p! D,2 | G,2 G,2 F,2 | E,3 D, C,2 | C,2 !fermata!D,4 | %46
 G,,4 z2 | z6 | z2 z2!f! G,,2 | [D,,D,]2 [D,,D,]2 [D,,D,]2 | [B,,,B,,]2 [B,,B,]2 [A,,A,]2 | %51
 [G,,G,]4 G,,2 | [C,,C,]6 | [D,,D,]2 [E,,E,]2 [C,,C,]2 | [D,,D,]4 D,,2 | !fermata![G,,,G,,]4 || %56
 G,F, | [E,,E,]6 | [^C,,^C,]6 | [A,,,A,,]4 [D,,D,]2 | [B,,,B,,]6 | G,,6 | A,,6 | [D,,D,]6 | %64
 G,,2 A,,2 B,,2 | [A,,,A,,]6 |!p! [D,,D,]6 | D,6 | D,6 | D,6 | D,4 D,2 | B,,2 ^C,2 D,2 | %72
 G,,2 A,,2 B,,2 | [A,,,A,,]6 |!f! [D,,D,]6 | [G,,,G,,]6- | [G,,,G,,]6 | [G,,,G,,]6- | [G,,,G,,]6 | %79
 [G,,,G,,]6 | [G,,G,]2 [A,,A,]2 [B,,B,]2 | [E,,E,]4 [D,,D,]2 | [D,,C,]4 [B,,,B,,]2- | %83
 [B,,,B,,]2 [D,,D,]4 | [G,,,G,,]4!p! D,2 | G,2 G,2 D,2 | !fermata!E,4 [C,,C,]2 | %87
 [C,,C,]2 !fermata![D,,D,]4 | [G,,,G,,]4!f! B,2 | C2 C2 D2 | E4 C2- | C2 D2 D,2 | [G,,D,G,]4 :| %93

